!!!COM:	la Rue, Pierre de
!!!CDT:	~1452///-1518/11/20
!!!OPR:	Missa Almana
!!!ONM:	2
!!!OTL:	Gloria
!!!AGN:	Mass; Gloria
!!!SCT:	Rue1002b
!!!SCA:	Rue1002b
!!!voices:	4
!!!voices-OPR:	4
**kern	**kern	**kern	**kern
*staff4	*staff3	*staff2	*staff1
*Ivox	*Ivox	*Ivox	*Ivox
*I"Bassus	*I"Tenor	*I"Contra	*I"Discantus
*I'B	*I'T	*I'C	*I'D
*>[A,B]	*>[A,B]	*>[A,B]	*>[A,B]
*>A	*>A	*>A	*>A
*clefF4	*clefGv2	*clefGv2	*clefG2
*k[b-]	*k[b-]	*k[b-]	*k[b-]
*M2/1	*M2/1	*M2/1	*M2/1
*met(C|)	*met(C|)	*met(C|)	*met(C|)
!!incipit: 5
!!section: Et in terra pax
!!!OMD: Et in terra pax
=1-	=1-	=1-	=1-
0r	0r	0F	0r
=2	=2	=2	=2
0r	0r	1B-	0r
.	.	1B-	.
=3	=3	=3	=3
0r	0r	1A	0c
.	.	2A/	.
.	.	4B-\	.
.	.	4c\	.
=4	=4	=4	=4
0r	0r	1d	1f
.	.	1d	1f
=5	=5	=5	=5
0r	0r	2c\	1e
.	.	2.c\	.
.	.	.	2e/
.	.	4B-\	.
.	.	4A/	4f/
.	.	4G/	4g/
=6	=6	=6	=6
0FF	0r	2.F/	1a
.	.	4G/	.
.	.	4A/	1a
.	.	4B-\	.
.	.	[2A/	.
=7	=7	=7	=7
1BB-	0r	2A/]	2f/
.	.	4G/	2.g/
.	.	4F/	.
1BB-	.	1G	.
.	.	.	4f/
.	.	.	4e/
.	.	.	4d/
=8	=8	=8	=8
1AA	0r	2.A/	1c
.	.	4B-\	.
2AA/	.	4c\	1cc
.	.	4d\	.
4BB-/	.	[2c\	.
4C/	.	.	.
=9	=9	=9	=9
1D	0r	2c\]	2a/
.	.	4B-\	2.b-\
.	.	4A/	.
1D	.	1B-	.
.	.	.	4a/
.	.	.	4g/
.	.	.	4f/
=10	=10	=10	=10
0C	0r	2c\	2e/
.	.	2A/	1f
.	.	1G	.
.	.	.	2e/
=11	=11	=11	=11
1r	[0F	1r	0f
1FF	.	1A	.
=12	=12	=12	=12
1.BB-	0F]	2.B-\	1r
.	.	4c\	.
.	.	[1d	[1f
2C/	.	.	.
=13	=13	=13	=13
1D	0B-	2d\]	1f]
.	.	2G/	.
[1E-	.	[1G	1g
=14	=14	=14	=14
1E-]	1B-	1G]	1g
[1D	1B-	[1d	[1f
=15	=15	=15	=15
0D]	[0A	1d]	1f]
.	.	1d	2d/
.	.	.	[2f/
=16	=16	=16	=16
0AA	0A]	2.c\	2f/]
.	.	.	4e/
.	.	4d\	4d/
.	.	1e	[1c
=17	=17	=17	=17
0F	1A	1.f	1c]
.	2A/	.	[1a
.	4B-\	2e\	.
.	4c\	.	.
=18	=18	=18	=18
1F	0d	2d\	1a]
.	.	2c\	.
[1G	.	2B-\	1b-
.	.	2A/	.
=19	=19	=19	=19
1G]	1d	1G	1b-
[1F	1d	[1A	[1a
=20	=20	=20	=20
1F]	[0c	1A]	1a]
1F	.	2.F/	1a
.	.	4G/	.
=21	=21	=21	=21
1C	0c]	2A/	1e
.	.	2.G/	.
2.C/	.	.	2r
.	.	4F/	.
.	.	4E/	2g/
4D\	.	4D/	.
=22	=22	=22	=22
2E\	0c	2C/	2g/
2F\	.	1c	2f/
2.C/	.	.	2e/
.	.	4B-\	[2g/
4D\	.	4A/	.
=23	=23	=23	=23
2E\	1c	2G/	2g/]
2F\	.	2A/	2f/
2.C/	[1c	2G/	2e/
.	.	2E/	[2g/
4D\	.	.	.
=24	=24	=24	=24
2E\	1c]	2G/	2g/]
2F\	.	2A/	4f/
.	.	.	4e/
1G	1B-	1B-	2d/
.	.	.	2d/
=25	=25	=25	=25
1C	0c	2r	0c
.	.	1A	.
2r	.	.	.
2C/	.	4G/	.
.	.	4F/	.
=26	=26	=26	=26
2C/	0r	2E/	0r
2BB-/	.	2D/	.
2AA/	.	1F	.
[2C/	.	.	.
=27	=27	=27	=27
2C/]	0r	2E/	0r
2BB-/	.	2D/	.
2AA/	.	2.F/	.
[2C/	.	.	.
.	.	8E/L	.
.	.	8F/J	.
=28	=28	=28	=28
2C/]	0r	4G/	0r
.	.	4C/	.
4BB-/	.	1F	.
4AA/	.	.	.
2GG/	.	.	.
2GG/	.	2E/	.
=29	=29	=29	=29
0FF	1r	0F	2r
.	.	.	1a
.	2r	.	.
.	2c\	.	4g/
.	.	.	4f/
=30	=30	=30	=30
0r	2c\	0r	2e/
.	2B-\	.	2d/
.	2A/	.	1f
.	[2c\	.	.
=31	=31	=31	=31
0r	2c\]	0r	2e/
.	2B-\	.	2d/
.	2A/	.	2.f/
.	[2c\	.	.
.	.	.	8e/L
.	.	.	8f/J
=32	=32	=32	=32
0r	2c\]	0r	4g/
.	.	.	4c/
.	4B-\	.	1f
.	4A/	.	.
.	2G/	.	.
.	2G/	.	2e/
=33	=33	=33	=33
2r	[0F	2r	[0f
2BB-/	.	2D/	.
2AA/	.	2C/	.
[2BB-/	.	[2D/	.
=34	=34	=34	=34
4BB-/]	0F]	4D/]	0f]
4C/	.	4E/	.
1D	.	1F	.
4C/	.	4E/	.
4BB-/	.	4D/	.
=35	=35	=35	=35
2AA/	0r	2C/	0r
2BB-/	.	2D/	.
1C	.	2r	.
.	.	2G/	.
=36	=36	=36	=36
1r	0r	2F/	0r
.	.	1G	.
2r	.	.	.
2C/	.	4F/	.
.	.	4E/	.
=37	=37	=37	=37
2BB-/	0G	2D/	0r
1C	.	2E/	.
.	.	2C/	.
4BB-/	.	[2c\	.
4AA/	.	.	.
=38	=38	=38	=38
1GG	1G	2c\]	1r
.	.	2Bni\	.
1r	[1A	[1c	2r
.	.	.	2f/
=39	=39	=39	=39
0r	1A]	1c]	2e/
.	.	.	2.f/
.	[1A	1c	.
.	.	.	4g/
.	.	.	2a/
=40	=40	=40	=40
0r	1A]	0c	2a/
.	.	.	4g/
.	.	.	4f/
.	1A	.	2e/
.	.	.	2f/
=41	=41	=41	=41
0r	[0B-	[0d	1g
.	.	.	1G
=42	=42	=42	=42
0r	0B-]	0d]	2r
.	.	.	2g/
.	.	.	2f/
.	.	.	[2g/
=43	=43	=43	=43
1r	0B-	0d	2g/]
.	.	.	4f/
.	.	.	4e/
1G	.	.	2.d/
.	.	.	4e/
=44	=44	=44	=44
2.D\	1A	0r	4f/
.	.	.	4g/
.	.	.	2.a/
4E\	.	.	.
2.F\	2r	.	.
.	.	.	4b-\
.	2A/	.	[2cc\
8E\L	.	.	.
8D\J	.	.	.
=45	=45	=45	=45
2C/	2.c\	0r	4cc\]
.	.	.	4b-\
2.F\	.	.	4a/
.	8B-\L	.	4g/
.	8c\J	.	.
.	2d\	.	4f/
4F\	.	.	4e/
[2F\	2A/	.	[2cc\
=46	=46	=46	=46
2F\]	2c\	0r	4cc\]
.	.	.	4b-\
2F\	2d\	.	1a
2D\	1B-	.	.
2E\	.	.	2g/
=47	=47	=47	=47
2F\	2A/	0r	1a
1D	4F/	.	.
.	4G/	.	.
.	4A/	.	2r
.	4B-\	.	.
4C/	[2c\	.	2A/
4BB-/	.	.	.
=48	=48	=48	=48
1AA	4c\]	0r	2.c/
.	4B-\	.	.
.	4A/	.	.
.	4G/	.	8B-/L
.	.	.	8c/J
1r	4F/	.	2d/
.	4E/	.	.
.	[2c\	.	2A/
=49	=49	=49	=49
0r	4c\]	2r	2.c/
.	4B-\	.	.
.	1A	2F/	.
.	.	.	4d/
.	.	2D/	1B-
.	2G/	2E/	.
=50	=50	=50	=50
2r	0A	2F/	0A
2F\	.	1D	.
2D\	.	.	.
2E\	.	2C/	.
=51	=51	=51	=51
2F\	0r	1D	0r
1D	.	.	.
.	.	2r	.
2C/	.	[2A/	.
=52	=52	=52	=52
1D	0r	2A/]	0r
.	.	1B-	.
2r	.	.	.
[2D\	.	4A/	.
.	.	4G/	.
=53	=53	=53	=53
4D\]	0r	2F/	0r
4BB-/	.	.	.
1E-	.	1G	.
4D\	.	[2B-\	.
4C/	.	.	.
=54	=54	=54	=54
2BB-/	0r	2B-\]	0r
1F	.	2A/	.
.	.	2G/	.
[2E\	.	[2c\	.
=55	=55	=55	=55
4E\]	0r	2c\]	0r
4D\	.	.	.
1G	.	2.B-\	.
.	.	4A/	.
2F\	.	[2c\	.
=56	=56	=56	=56
2E\	0r	2c\]	0r
1G	.	2B-\	.
.	.	2A/	.
2F\	.	[2d\	.
=57	=57	=57	=57
2E\	0r	2d\]	0r
2C/	.	1c	.
1D	.	.	.
.	.	2Bni\	.
=58	=58	=58	=58
[0C	1r	[0c	0e
.	1A	.	.
=59	=59	=59	=59
0C_	1G	0c]	1e
.	1A	.	[1e
=60	=60	=60	=60
0C]	1G	0c	1e]
.	1E	.	1e
=61	=61	=61	=61
1r	1r	0A	1f
1D	1F	.	1d
=62	=62	=62	=62
1C	1E	0r	1e
1D	1F	.	1d
=63	=63	=63	=63
1C	1E	0r	0e
1AA	1C	.	.
=64	=64	=64	=64
1r	1r	1r	0d
1BB-	[1F	1d	.
=65	=65	=65	=65
1AA	1F]	1c	1r
1BB-	[1F	1d	[1f
=66	=66	=66	=66
1AA	1F]	1c	1f]
2FF/	[1F	1A	1a
2FF/	.	.	.
=67	=67	=67	=67
1GG	1F]	1d	0b-
1GG	1E	2.B-\	.
.	.	4c\	.
=68	=68	=68	=68
0FF	1F	2d\	0a
.	.	1c	.
.	2r	.	.
.	2F/	2F/	.
=69	=69	=69	=69
0r	2.A/	1F	2.f/
.	4B-\	.	4g/
.	2c\	1r	4a/
.	.	.	4b-\
.	[2c\	.	[2a/
=70	=70	=70	=70
1r	2c\]	0r	2a/]
.	4B-\	.	1f
.	4A/	.	.
1C	1G	.	.
.	.	.	2e/
=71	=71	=71	=71
2.D\	0F	2.B-\	0f
4E\	.	4c\	.
2F\	.	4d\	.
.	.	4e-i\	.
[2F\	.	[2d\	.
=72	=72	=72	=72
2F\]	1D	2d\]	1r
4E\	.	1B-	.
4D\	.	.	.
1C	1E	.	1c
.	.	2A/	.
=73	=73	=73	=73
2.BB-/	[0F	0B-	2.d/
4C/	.	.	4e/
4D\	.	.	2f/
4E-i\	.	.	.
[2D\	.	.	[2f/
=74	=74	=74	=74
2D\]	0F_	1r	2f/]
1BB-	.	.	4e/
.	.	.	4d/
.	.	1c	1c
2AA/	.	.	.
=75	=75	=75	=75
0BB-	0F]	2.d\	1B-
.	.	4e\	.
.	.	2f\	2r
.	.	[2f\	2f/
=76	=76	=76	=76
0r	0r	2f\]	2g/
.	.	4e\	1b-
.	.	4d\	.
.	.	1c	.
.	.	.	2a/
=77	=77	=77	=77
0r	1r	2.B-\	1b-
.	.	4c\	.
.	1G	4d\	1g
.	.	4e-i\	.
.	.	2d\	.
=78	=78	=78	=78
1r	2.A/	2c\	2.f/
.	.	2.F/	.
.	4B-\	.	4g/
2r	2c\	.	4a/
.	.	4G/	4b-\
[2FF/	[2c\	4A/	[2a/
.	.	4B-\	.
=79	=79	=79	=79
4FF/]	2c\]	1A	2a/]
4GG/	.	.	.
4AA/	4B-\	.	1f
4BB-/	4A/	.	.
1C	1G	1r	.
.	.	.	2e/
=80	=80	=80	=80
1FF	1F	1A	1f
2r	1r	1B-	1d
2GG/	.	.	.
=81	=81	=81	=81
2.AA/	2.F/	2.A/	2.c/
4BB-/	4G/	4G/	4B-/
2C/	4A/	2F/	4A/
.	4B-\	.	4G/
[2C/	[2A/	[2E-/	[2c/
=82	=82	=82	=82
2C/]	2A/]	2E-/]	4c/]
.	.	.	4A/
4BB-/	1F	4D/	1d
4AA/	.	4C/	.
1GG	.	2.BB-/	.
.	2E/	.	4c/
.	.	4AA/	4B-/
=83	=83	=83	=83
[0FFl	[0Fl	1C	0A
.	.	1D	.
=84	=84	=84	=84
0FF]	0F]	0Cl	0Al
!!LO:LB:i:g=z
=85||	=85||	=85||	=85||
*>B	*>B	*>B	*>B
*clefF4	*clefGv2	*clefGv2	*clefG2
*k[b-]	*k[b-]	*k[b-]	*k[b-]
*M2/1	*M2/1	*M2/1	*M2/1
*met(C|)	*met(C|)	*met(C|)	*met(C|)
!!section: Qui tollis
!!!OMD: Qui tollis
0BB-	0F	1r	0d
.	.	1F	.
=86	=86	=86	=86
1BB-	1F	1B-	1d
1BB-	[1F	2.B-\	[1d
.	.	4c\	.
=87	=87	=87	=87
2.BB-/	1F]	2d\	1d]
.	.	1d	.
4C/	.	.	.
2D\	1F	.	2.d/
[2D\	.	4c\	.
.	.	4B-\	4e/
=88	=88	=88	=88
2D\]	0F	0A	2f/
4C/	.	.	1f
4BB-/	.	.	.
[1AA	.	.	.
.	.	.	4e/
.	.	.	4d/
=89	=89	=89	=89
1AA]	0E	1A	0c
1AA	.	1c	.
=90	=90	=90	=90
1C	0E	1c	1r
1C	.	1c	1g
=91	=91	=91	=91
1C	1G	2.c\	1g
.	.	4d\	.
2.C/	1G	2e-\	1g
.	.	[2e-i\	.
4D\	.	.	.
=92	=92	=92	=92
2E-\	1G	2e-\]	2.g/
1E-i	.	4d\	.
.	.	4c\	4a/
.	2.G/	1B-	2b-\
4D\	.	.	[2b-\
4C/	4A/	.	.
=93	=93	=93	=93
1BB-	2B-\	2r	2b-\]
.	1B-	1d	4a/
.	.	.	4g/
2r	.	.	1f
[2BB-/	4A/	[2d\	.
.	4G/	.	.
=94	=94	=94	=94
2BB-/]	1F	2d\]	2r
1BB-	.	2d\	1f
.	2r	1d	.
2BB-/	[2B-\	.	[2f/
=95	=95	=95	=95
1BB-	2B-\]	1d	2f/]
.	1B-	.	2f/
[1E-	.	1G	1g
.	2B-\	.	.
=96	=96	=96	=96
1E-]	0B-	1G	1g
[1D	.	1d	[1f
=97	=97	=97	=97
2D\]	0A	1D	1f]
4C/	.	.	.
4BB-/	.	.	.
1C	.	1E	1e
=98	=98	=98	=98
1BB-	1B-	2r	2r
.	.	2F/	2d/
1r	1r	2G/	2e/
.	.	[2A/	[2f/
=99	=99	=99	=99
0r	0r	2A/]	2f/]
.	.	2F/	2d/
.	.	2G/	2e/
.	.	2A/	[2f/
=100	=100	=100	=100
0r	0r	2F/	2f/]
.	.	1B-	4e/
.	.	.	4d/
.	.	.	1c
.	.	2A/	.
=101	=101	=101	=101
0r	0r	2B-\	2r
.	.	2d\	2f/
.	.	2e\	2g/
.	.	[2f\	[2a/
=102	=102	=102	=102
0r	0r	2f\]	2a/]
.	.	2d\	2f/
.	.	2e\	2g/
.	.	[2f\	2a/
=103	=103	=103	=103
0r	0r	2f\]	2f/
.	.	4e\	1b-
.	.	4d\	.
.	.	1c	.
.	.	.	2a/
=104	=104	=104	=104
1BB-	[0B-	1B-	0b-
2C/	.	1r	.
[2E-\	.	.	.
=105	=105	=105	=105
2E-\]	0B-]	1G	0r
4D\	.	.	.
4C/	.	.	.
2.BB-/	.	2G/	.
.	.	[2F/	.
4C/	.	.	.
=106	=106	=106	=106
1D	[0B-	4F/]	1f
.	.	4E/	.
.	.	1D	.
1BB-	.	.	2g/
.	.	[2G/	[2b-\
=107	=107	=107	=107
0BB-	0B-]	2G/]	2b-\]
.	.	4F/	4a/
.	.	4E/	4g/
.	.	2D/	2.f/
.	.	2E/	.
.	.	.	4g/
=108	=108	=108	=108
2r	[0A	1F	1a
2.F\	.	.	.
.	.	2r	1f
4E\	.	.	.
[2D\	.	[2F/	.
=109	=109	=109	=109
2D\]	0A]	2F/]	2r
4C/	.	4E/	2.cc\
4BB-/	.	4D/	.
[1AA	.	1C	.
.	.	.	4b-\
.	.	.	[2a/
=110	=110	=110	=110
1AA]	0A	2r	2a/]
.	.	1c	4g/
.	.	.	4f/
[1C	.	.	2e/
.	.	4B-\	2f/
.	.	4A/	.
=111	=111	=111	=111
1C]	0G	2G/	2g/
.	.	1c	2e/
1GG	.	.	1d
.	.	2Bni\	.
=112	=112	=112	=112
2r	0G	2c\	1c
1C	.	1e-	.
.	.	.	2r
4BB-/	.	4d\	[2g/
4AA/	.	4c\	.
=113	=113	=113	=113
2.GG/	[0G	1.c	2g/]
.	.	.	4f/
4AA/	.	.	4e/
4BB-/	.	.	2d/
4GG/	.	.	.
[2C/	.	2G/	4c/
.	.	.	4d/
=114	=114	=114	=114
2C/]	0G]	2c\	4e/
.	.	.	4c/
2BB-/	.	2d\	1f
1C	.	1c	.
.	.	.	2e/
=115	=115	=115	=115
0FF	1F	0c	1f
.	2r	.	2r
.	[2A/	.	[2c/
=116	=116	=116	=116
1r	2A/]	0r	2c/]
.	4G/	.	4B-/
.	4F/	.	4A/
2r	2G/	.	2B-/
2FF/	[2A/	.	[2c/
=117	=117	=117	=117
1FF	4A/]	0r	4c/]
.	4G/	.	4F/
.	1F	.	2A/
1r	.	.	1G
.	2E/	.	.
=118	=118	=118	=118
2r	1F	0r	1F
2FF/	.	.	.
1FF	2r	.	2r
.	[2c\	.	[2a/
=119	=119	=119	=119
1C	2c\]	0r	2a/]
.	4B-\	.	4g/
.	4A/	.	4f/
2r	2B-\	.	2g/
2FF/	[2c\	.	[2a/
=120	=120	=120	=120
1FF	4c\]	0r	4a/]
.	4F/	.	4g/
.	2A/	.	1f
1C	1G	.	.
.	.	.	2e/
=121	=121	=121	=121
2D\	0F	0r	0f
1BB-	.	.	.
2AA/	.	.	.
=122	=122	=122	=122
2BB-/	0r	1r	0r
1GG	.	.	.
.	.	1A	.
2FF/	.	.	.
=123	=123	=123	=123
2GG/	0r	1.B-	0r
2D\	.	.	.
2E\	.	.	.
[2G\	.	4A/	.
.	.	4G/	.
=124	=124	=124	=124
2G\]	0r	1A	0r
2F\	.	.	.
2G\	.	2r	.
2D\	.	[2d\	.
=125	=125	=125	=125
1E	0r	2d\]	0r
.	.	2c\	.
1D	.	2B-\	.
.	.	[2A/	.
=126	=126	=126	=126
1C	0r	4A/]	0r
.	.	8G/L	.
.	.	8F/J	.
.	.	2E/	.
1D	.	2F/	.
.	.	[2D/	.
=127	=127	=127	=127
1BB-	0r	2D/]	0r
.	.	2F/	.
2r	.	2G/	.
2BB-/	.	[2B-\	.
=128	=128	=128	=128
2C/	0r	4B-\]	0r
.	.	4A/	.
2.E-\	.	4G/	.
.	.	4F/	.
.	.	2G/	.
4D\	.	.	.
4C/	.	[2E/	.
4BB-/	.	.	.
=129	=129	=129	=129
2C/	0r	2E/]	0r
1AA	.	1A	.
[2D\	.	4G/	.
.	.	4F/	.
=130	=130	=130	=130
2D\]	0r	4G/	0r
.	.	4F/	.
4C/	.	1B-	.
4BB-/	.	.	.
1C	.	.	.
.	.	2A/	.
=131	=131	=131	=131
1BB-	1r	1B-	2r
.	.	.	2f/
2r	2r	1d	2f/
2BB-/	2B-\	.	[2f/
=132	=132	=132	=132
2BB-/	2B-\	2d\	2f/]
2BB-/	1B-	2d\	2f/
2BB-/	.	2B-\	2f/
2BB-/	2B-\	[2f\	2f/
=133	=133	=133	=133
1BB-	2B-\	2f\]	0b-
.	2B-\	2f\	.
1BB-	1B-	1f	.
=134	=134	=134	=134
0F	0c	0f	1a
.	.	.	2r
.	.	.	2f/
=135	=135	=135	=135
2r	2r	1d	2f/
2BB-/	2B-\	.	2f/
2BB-/	2B-\	2d\	2g/
2BB-/	2B-\	2d\	[2b-\
=136	=136	=136	=136
1BB-	1B-	2d\	2b-\]
.	.	2d\	4a/
.	.	.	4g/
1BB-	1B-	2d\	1f
.	.	2d\	.
=137	=137	=137	=137
1BB-	1d	4d\	2r
.	.	4c\	.
.	.	4B-\	2f/
.	.	4A/	.
2r	2r	2B-\	2f/
2BB-/	2d\	2B-\	[2f/
=138	=138	=138	=138
2BB-/	2d\	2B-\	2f/]
1BB-	1d	1B-	2f/
.	.	.	2f/
2BB-/	2d\	2B-\	2f/
=139	=139	=139	=139
0E-	0B-	1G	1g
.	.	1G	2r
.	.	.	[2b-\
=140	=140	=140	=140
0E-i	0B-	[0G	4b-\]
.	.	.	4a/
.	.	.	1g
.	.	.	2f/
=141	=141	=141	=141
1C	2r	0G]	2e-i/
.	2.e-\	.	2.cc\
1C	.	.	.
.	4d\	.	4b-\
.	[2c\	.	2a/
=142	=142	=142	=142
1C	2c\]	[0c	2g/
.	4B-\	.	1f
.	4A/	.	.
1C	1G	.	.
.	.	.	2e/
=143	=143	=143	=143
0FF	0F	0c]	0f
=144	=144	=144	=144
*M3/1	*M3/1	*M3/1	*M3/1
*met(3)	*met(3)	*met(3)	*met(3)
0.r	0.r	1F	1c
.	.	1F	1c
.	.	1B-	1d
=145	=145	=145	=145
0.r	0.r	1.A	1c
.	.	.	2d/
.	.	4G/	1f
.	.	4F/	.
.	.	1G	.
.	.	.	2e/
=146	=146	=146	=146
1FF	1C	0.F	0.f
1FF	1C	.	.
1BB-	1D	.	.
=147	=147	=147	=147
1.AA	1C	0.r	1r
.	2D/	.	1r
4GG/	1F	.	.
4FF/	.	.	.
1GG	.	.	1g
.	2E/	.	.
=148	=148	=148	=148
0.FF	0.F	1F	1.a
.	.	1.c	.
.	.	.	2a/
.	.	.	1a
.	.	2c\	.
=149	=149	=149	=149
0.r	1r	1c	1g
.	1r	2c\	2e/
.	.	2c\	2c/
.	1G	1B-	1d
=150	=150	=150	=150
1FF	1.A	0c	0c
1.C	.	.	.
.	2A/	.	.
.	1A	1r	1r
2C/	.	.	.
=151	=151	=151	=151
1C	1G	0.r	1r
2C/	2E/	.	1r
2C/	2C/	.	.
1BB-	1D	.	1f
=152	=152	=152	=152
0C	0C	1r	1.e
.	.	1r	.
.	.	.	2f/
1r	1r	1B-	1g
=153	=153	=153	=153
0.r	0.r	1.A	1.a
.	.	2B-\	4g/
.	.	.	4f/
.	.	1c	1e
=154	=154	=154	=154
0.r	1r	1.d	2r
.	.	.	1d
.	1r	.	.
.	.	4c\	2e/
.	.	4B-\	.
.	1F	1A	1f
=155	=155	=155	=155
1r	1.E	0G	1.g
1r	.	.	.
.	2F/	.	2a/
1BB-	1G	1d	1b-
=156	=156	=156	=156
1.AA	1.A	1.c	1.cc
2BB-/	4G/	2d\	4b-\
.	4F/	.	4a/
1C	1E	1e	1g
=157	=157	=157	=157
1.D	1.D	1.f	2r
.	.	.	1f
4C/	2E/	4e\	2g/
4BB-/	.	4d\	.
1AA	1F	1c	1a
=158	=158	=158	=158
0GG	2.G/	1.B-	2b-\
.	.	.	1g
.	4A/	.	.
.	2B-\	.	.
.	1c	2A/	4f/
.	.	.	4e/
1GG	.	2G/	1d
.	2B-\	2F/	.
=159	=159	=159	=159
1.AA	1.c	2E/	2r
.	.	2C/	1c
.	.	0c	.
2BB-/	4B-\	.	2d/
.	4A/	.	.
1C	1G	.	1e
=160	=160	=160	=160
1D	1F	1B-	1.f
0C	0G	[0c	.
.	.	.	4e/
.	.	.	4d/
.	.	.	1e
=161	=161	=161	=161
[0.FFl	[0.Fl	0.c]	[0.fl
=162	=162	=162	=162
0.FF]	0.F]	0.cl	0.f]
==	==	==	==
*-	*-	*-	*-
!!!RDF**kern: l=long note in original notation
!!!RDF**kern: i=editorial accidental
!!!RDF**kern: V=start of tuplet marker
!!!RDF**kern: Z=end of tuplet marker
!!!ENC:	Chris Gage 11-16-2012
!!!END:	2012/11/17/
!!!EED:	Jesse Rodin
!!!EEV:	2012/12/15/
!!!ONB:	Translated from MusicXML and edited on 2012/12/15/ by Craig Sapp
!!muse2ps: T^@{OPR}^u^@{ONM}{. }@{OTL}^C^@{COM}^i2I150v85,85,85,150Q16
